packages/ffe-icons/icons/open/300/sm/earbuds.svg

<svg xmlns="http://www.w3.org/2000/svg" height="20" viewBox="0 -960 960 960" width="20"><path d="M330.057-154.001q-73.826 0-124.941-51.075Q154.001-256.15 154.001-330v-361.077q0-46.23 32.961-80.576 32.962-34.346 77.807-34.346 42.846 0 77.038 29.384Q375.999-747.23 375.999-705q0 49.384-33 85.692Q310-583.001 264-586.001h-58.001V-330q0 51.667 35.43 87.834t87.557 36.167q52.127 0 88.571-36.167 36.444-36.167 36.444-87.834v-300.149q0-73.701 51.058-124.775 51.058-51.075 124.884-51.075t125.441 51.075Q806.999-703.85 806.999-630v358q0 47.384-30.461 82.692-30.461 35.307-75.961 35.307-45.499 0-79.538-32.5-34.038-32.499-34.038-77.691t32.5-77.5Q652-373.999 697-373.999h58.001V-630q0-51.667-36.18-87.834t-87.866-36.167q-52.103 0-88.529 36.167-36.427 36.167-36.427 87.834v300.149q0 73.701-51.058 124.775-51.058 51.075-124.884 51.075ZM205.999-637.999H264q23.846 1 40.924-16.577 17.077-17.578 17.077-41.424t-16.877-40.924Q288.246-754.001 264-754.001q-24.246 0-41.124 16.877-16.877 16.878-16.877 41.124v58.001Zm490.001 432q24.246 0 41.124-16.877 16.877-16.878 16.877-41.124v-58.001H696q-24.246 0-41.124 16.877-16.877 16.878-16.877 41.124 0 24.246 16.877 41.124 16.878 16.877 41.124 16.877ZM696-264ZM264-696Z"/></svg>

<svg xmlns="http://www.w3.org/2000/svg" height="20" viewBox="0 -960 960 960" width="20"><path d="M330.06-154q-73.83 0-124.94-51.08Q154-256.15 154-330v-361.08q0-46.23 32.96-80.57Q219.92-806 264.77-806q42.84 0 77.04 29.39Q376-747.23 376-705q0 49.38-33 85.69Q310-583 264-586h-58v256q0 51.67 35.43 87.83Q276.86-206 328.99-206q52.12 0 88.57-36.17Q454-278.33 454-330v-300.15q0-73.7 51.06-124.77Q556.12-806 629.94-806q73.83 0 125.44 51.08Q807-703.85 807-630v358q0 47.38-30.46 82.69Q746.08-154 700.58-154q-45.5 0-79.54-32.5Q587-219 587-264.19t32.5-77.5Q652-374 697-374h58v-256q0-51.67-36.18-87.83Q682.64-754 630.95-754q-52.1 0-88.52 36.17Q506-681.67 506-630v300.15q0 73.7-51.06 124.77Q403.88-154 330.06-154ZM206-638h58q23.85 1 40.92-16.58Q322-672.15 322-696t-16.88-40.92Q288.25-754 264-754q-24.25 0-41.12 16.88Q206-720.25 206-696v58Zm490 432q24.25 0 41.12-16.88Q754-239.75 754-264v-58h-58q-24.25 0-41.12 16.88Q638-288.25 638-264q0 24.25 16.88 41.12Q671.75-206 696-206Zm0-58ZM264-696Z"/></svg>
